lib/healthicons/icons/solid/vehicles/small_plane.svg

<svg fill="none" height="48" viewBox="0 0 48 48" width="48" xmlns="http://www.w3.org/2000/svg"><path d="m11.8064 14.1289-3.48391 3.4839c-1.16129 1.1613-2.32258 0-1.16129-1.1613l9.2903-9.2903c1.1613-1.16129 2.3226 0 1.1613 1.16129l-3.4839 3.48391s2.3226 0 4.6452 2.3225l2.3226 2.3226 9.0374-9.03738c.781-.78105 2.0474-.78105 2.8284 0l1.1506 1.1506c.5589.55888.7362 1.39448.4525 2.13218l-5.3399 13.8837 6.9678 9.2903 4.0298-2.015c.3675-.1837.8113-.1117 1.1017.1788.3728.3727.3728.977 0 1.3498l-7.9405 7.9405c-.3728.3728-.9771.3728-1.3498 0-.2905-.2904-.3625-.7342-.1788-1.1017l2.015-4.0298-9.2903-6.9678-13.8837 5.3399c-.73771.2837-1.5733.1064-2.13218-.4525l-1.1506-1.1506c-.78105-.781-.78105-2.0474 0-2.8284l9.03738-9.0374-2.3226-2.3226c-2.3225-2.3226-2.3225-4.6452-2.3225-4.6452z" fill="#333"/></svg>

<svg width="48" height="48" viewBox="0 0 48 48" fill="none" xmlns="http://www.w3.org/2000/svg">
<path d="M11.8064 14.1289L8.32249 17.6128C7.1612 18.7741 5.99991 17.6128 7.1612 16.4515L16.4515 7.1612C17.6128 5.99991 18.7741 7.1612 17.6128 8.32249L14.1289 11.8064C14.1289 11.8064 16.4515 11.8064 18.7741 14.1289L21.0967 16.4515L30.1341 7.41412C30.9151 6.63307 32.1815 6.63307 32.9625 7.41412L34.1131 8.56472C34.672 9.1236 34.8493 9.9592 34.5656 10.6969L29.2257 24.5806L36.1935 33.8709L40.2233 31.8559C40.5908 31.6722 41.0346 31.7442 41.325 32.0347C41.6978 32.4074 41.6978 33.0117 41.325 33.3845L33.3845 41.325C33.0117 41.6978 32.4074 41.6978 32.0347 41.325C31.7442 41.0346 31.6722 40.5908 31.8559 40.2233L33.8709 36.1935L24.5806 29.2257L10.6969 34.5656C9.95919 34.8493 9.1236 34.672 8.56472 34.1131L7.41412 32.9625C6.63307 32.1815 6.63307 30.9151 7.41412 30.1341L16.4515 21.0967L14.1289 18.7741C11.8064 16.4515 11.8064 14.1289 11.8064 14.1289Z" fill="#333333"/>
</svg>
